X: 347
T:Is Trua gan Peata an Mhaoir Agam
M:2/4
L:1/8
R:polka
D:North Cregg: Summer at my Feet
Z:Devin McCabe
K:A
cA AB|cd e2|fd ec|df e>d|
!cA AB|cd e2|fd ec|d e/2d/2 cB|
!|:A B/2A/2 GE|FD DF|EF G/2F/2E|1Ac e2:|2A2 AB||
